src/app/img/heartDarkFill.svg

<svg width="22" height="20" viewBox="0 0 22 20" fill="none" xmlns="http://www.w3.org/2000/svg">
<path d="M2.17928 9.82993C0.348461 7.48147 0.665754 4.16327 3.01858 2.15933L3.01858 2.15933C5.2618 0.24873 8.31547 0.813249 10.2411 3.05738C10.4311 3.27879 10.7083 3.40619 11 3.40619C11.2917 3.40619 11.5689 3.27879 11.7589 3.05738C13.6773 0.821708 16.6767 0.262454 18.9767 2.16808C21.3531 4.13696 21.6454 7.47008 19.8057 9.82991C18.9609 10.9135 17.2066 12.6565 15.3892 14.3665C13.649 16.0039 11.9084 17.5579 10.9925 18.3675C10.0765 17.5579 8.33597 16.0039 6.59572 14.3665C4.77836 12.6565 3.02403 10.9135 2.17928 9.82993ZM2.17928 9.82993L1.39147 10.4441L2.17928 9.82993Z" stroke="#034956" fill="#034956" stroke-width="2" stroke-linecap="round" stroke-linejoin="round"/>
</svg>

<?xml version="1.0" encoding="UTF-8"?>
<svg id="_лой_1" data-name=" лой 1" xmlns="http://www.w3.org/2000/svg" viewBox="0 0 22 19.7">
  <defs>
    <style>
      .cls-1 {
        fill: #eb2f06;
        stroke: #eb2f06;
        stroke-miterlimit: 10;
        stroke-width: 2px;
      }
    </style>
  </defs>
  <path class="cls-1" d="M2.2,9.8C.3,7.5,.7,4.2,3,2.2h0C5.3,.2,8.3,.8,10.2,3.1c.2,.2,.5,.3,.8,.3s.6,0,.8-.3c1.9-2.2,4.9-2.8,7.2-.9,2.4,2,2.7,5.3,.8,7.7-.8,1.1-2.6,2.8-4.4,4.5-1.7,1.6-3.5,3.2-4.4,4-.9-.8-2.7-2.4-4.4-4-1.8-1.7-3.6-3.5-4.4-4.5h0Z"/>
</svg>
